X:4715
T:Polska (Hymn lt)
A:Dalarna
C:e. Pers Erik  Pers Hans
L:1/16
M:3/4
N:turns -> mordants
O:Sweden
R:Polska
Z:Richard Robinson 
%%TUNEURL: http://www.leeds.ac.uk/music/Info/RRTuneBk/gettune/00000a83.html
%%ID:00000a83
K:C
~G2EG c4 c4|{d}c2Bc d4d4|1\
{cd}e3d c4 ~c2Bc|d2B2 G4 G4:|2\
{cd}e3d c4 ~c2Bc|d2B2 G4 G3B|d2cd c8 ::
~c2Ac a4 f4|a2a2 g4 {ag}e4|\
fefg a3g f3e|d3c BcBA (G4|
G2)G2 a4 f4|a2a2 g4 {ag}e4|\
fefg a3g f3e|d3c BccA G3B|d2Bd c8 :|
